X:1     %Music
T:George Collins
B:Purslow, F, 1968,The Wanton Seed, EFDS Publications, London
S:Henry Blake, Bartley, Hant
Z:Gardiner H 1193
F:http://www.folkinfo.org/songs
M:6/8     %Meter
L:1/8     %
K:C
G |FDB, (B,D)E |(GF)D C2
w:George Col-ins walked out_ one May_ morn-ing, 
 D |(EF)G (cd)c | G3-G2
w:When may_ was all_ in bloom*
E |GGG c2 c |_BAG (DE)
w: And there he be-held a pret-ty fair maid_ 
 F |GAG GFE | C3-C2  |]
w:A-wash-ing her mar-*ble stone.* 